svgs/thin/money-bill-wheat.svg

<svg xmlns="http://www.w3.org/2000/svg" viewBox="0 0 512 512"><!--! Font Awesome Pro 6.4.0 by @fontawesome - https://fontawesome.com License - https://fontawesome.com/license (Commercial License) Copyright 2023 Fonticons, Inc. --><path d="M218.3 32C207.1 22 192.2 16 176 16c0 35.3 28.7 64 64 64c0-19.1-8.4-36.3-21.7-48zm112 0C319.1 22 304.2 16 288 16c0 35.3 28.7 64 64 64c0-19.1-8.4-36.3-21.7-48zm112 0C431 22 416.2 16 400 16c0 35.3 28.7 64 64 64c0-19.1-8.4-36.3-21.7-48zM352 144c-35.3 0-64 28.7-64 64c16.2 0 31.1-6 42.3-16c13.3-11.7 21.7-28.9 21.7-48zm-112 0c-35.3 0-64 28.7-64 64c16.2 0 31.1-6 42.3-16c13.3-11.7 21.7-28.9 21.7-48zm224 0c-35.3 0-64 28.7-64 64c16.2 0 31-6 42.3-16c13.3-11.7 21.7-28.9 21.7-48zM160 16c0-8.8 7.2-16 16-16c44.2 0 80 35.8 80 80c0 8.8-7.2 16-16 16c-44.2 0-80-35.8-80-80zm112 0c0-8.8 7.2-16 16-16c44.2 0 80 35.8 80 80c0 8.8-7.2 16-16 16c-44.2 0-80-35.8-80-80zM400 0c44.2 0 80 35.8 80 80c0 8.8-7.2 16-16 16c-44.2 0-80-35.8-80-80c0-8.8 7.2-16 16-16zM368 144c0 44.2-35.8 80-80 80c-8.8 0-16-7.2-16-16c0-44.2 35.8-80 80-80c8.8 0 16 7.2 16 16zM240 128c8.8 0 16 7.2 16 16c0 44.2-35.8 80-80 80c-8.8 0-16-7.2-16-16c0-44.2 35.8-80 80-80zm240 16c0 44.2-35.8 80-80 80c-8.8 0-16-7.2-16-16c0-44.2 35.8-80 80-80c8.8 0 16 7.2 16 16zM8 104H152c4.4 0 8 3.6 8 8s-3.6 8-8 8H8c-4.4 0-8-3.6-8-8s3.6-8 8-8zM32 40c0-4.4 3.6-8 8-8h80c4.4 0 8 3.6 8 8s-3.6 8-8 8H40c-4.4 0-8-3.6-8-8zm8 136h80c4.4 0 8 3.6 8 8s-3.6 8-8 8H40c-4.4 0-8-3.6-8-8s3.6-8 8-8zM16 328c30.9 0 56-25.1 56-56H48c-17.7 0-32 14.3-32 32v24zm0 16v80c39.8 0 72 32.2 72 72H424c0-39.8 32.2-72 72-72V344c-39.8 0-72-32.2-72-72H88c0 39.8-32.2 72-72 72zm424-72c0 30.9 25.1 56 56 56V304c0-17.7-14.3-32-32-32H440zm56 168c-30.9 0-56 25.1-56 56h24c17.7 0 32-14.3 32-32V440zM72 496c0-30.9-25.1-56-56-56v24c0 17.7 14.3 32 32 32H72zm184-64a48 48 0 1 0 0-96 48 48 0 1 0 0 96zm0-112a64 64 0 1 1 0 128 64 64 0 1 1 0-128zM0 304c0-26.5 21.5-48 48-48H464c26.5 0 48 21.5 48 48V464c0 26.5-21.5 48-48 48H48c-26.5 0-48-21.5-48-48V304z"/></svg>

<svg xmlns="http://www.w3.org/2000/svg" viewBox="0 0 512 512"><!--! Font Awesome Pro 6.3.0 by @fontawesome - https://fontawesome.com License - https://fontawesome.com/license (Commercial License) Copyright 2023 Fonticons, Inc. --><path d="M256 80C256 88.84 248.8 96 240 96C195.8 96 160 60.18 160 16C160 7.164 167.2 0 176 0C220.2 0 256 35.82 256 80zM176 16C176 51.35 204.7 80 240 80C240 44.65 211.3 16 176 16zM368 80C368 88.84 360.8 96 352 96C307.8 96 272 60.18 272 16C272 7.164 279.2 0 288 0C332.2 0 368 35.82 368 80zM288 16C288 51.35 316.7 80 352 80C352 44.65 323.3 16 288 16zM384 16C384 7.164 391.2 0 400 0C444.2 0 480 35.82 480 80C480 88.84 472.8 96 464 96C419.8 96 384 60.18 384 16zM400 16C400 51.35 428.7 80 464 80C464 44.65 435.3 16 400 16zM352 128C360.8 128 368 135.2 368 144C368 188.2 332.2 224 288 224C279.2 224 272 216.8 272 208C272 163.8 307.8 128 352 128zM288 208C323.3 208 352 179.3 352 144C316.7 144 288 172.7 288 208zM176 224C167.2 224 160 216.8 160 208C160 163.8 195.8 128 240 128C248.8 128 256 135.2 256 144C256 188.2 220.2 224 176 224zM176 208C211.3 208 240 179.3 240 144C204.7 144 176 172.7 176 208zM464 128C472.8 128 480 135.2 480 144C480 188.2 444.2 224 400 224C391.2 224 384 216.8 384 208C384 163.8 419.8 128 464 128zM400 208C435.3 208 464 179.3 464 144C428.7 144 400 172.7 400 208zM152 104C156.4 104 160 107.6 160 112C160 116.4 156.4 120 152 120H8C3.582 120 0 116.4 0 112C0 107.6 3.582 104 8 104H152zM32 40C32 35.58 35.58 32 40 32H120C124.4 32 128 35.58 128 40C128 44.42 124.4 48 120 48H40C35.58 48 32 44.42 32 40zM120 176C124.4 176 128 179.6 128 184C128 188.4 124.4 192 120 192H40C35.58 192 32 188.4 32 184C32 179.6 35.58 176 40 176H120zM192 384C192 348.7 220.7 320 256 320C291.3 320 320 348.7 320 384C320 419.3 291.3 448 256 448C220.7 448 192 419.3 192 384zM256 432C282.5 432 304 410.5 304 384C304 357.5 282.5 336 256 336C229.5 336 208 357.5 208 384C208 410.5 229.5 432 256 432zM0 304C0 277.5 21.49 256 48 256H464C490.5 256 512 277.5 512 304V464C512 490.5 490.5 512 464 512H48C21.49 512 0 490.5 0 464V304zM16 328C46.93 328 72 302.9 72 272H48C30.33 272 16 286.3 16 304V328zM16 344V424C55.76 424 88 456.2 88 496H424C424 456.2 456.2 424 496 424V344C456.2 344 424 311.8 424 272H88C88 311.8 55.76 344 16 344zM440 272C440 302.9 465.1 328 496 328V304C496 286.3 481.7 272 464 272H440zM496 440C465.1 440 440 465.1 440 496H464C481.7 496 496 481.7 496 464V440zM72 496C72 465.1 46.93 440 16 440V464C16 481.7 30.33 496 48 496H72z"/></svg>
